dist/img/ghost-owo.svg

<svg width="97" height="117" viewBox="0 0 97 117" fill="none" xmlns="http://www.w3.org/2000/svg">
<g filter="url(#filter0_d_74_8062)">
<path d="M37.7382 91.0252C36.9644 91.6333 36.0105 92.1379 35.0123 92.3129C32.2616 92.7953 30.1388 89.84 29.3326 87.1662C23.5427 67.9629 18.6293 34.3465 37.7344 25.6948C58.3358 16.3656 69.4205 52.1568 72.3878 71.2185C73.3803 76.8964 72.8573 86.4851 62.8249 79.417C62.4641 79.2138 61.661 78.3241 61.3017 78.2821C61.145 78.2638 61.2572 79.3398 61.263 79.4449C61.4346 84.4861 59.7433 92.0161 51.6055 81.8065C51.3515 81.5193 51.0744 80.953 50.7846 80.7392C50.6696 80.6544 50.7357 81.0208 50.7112 81.1616L50.6069 81.7623C50.5314 82.197 50.5405 82.5903 50.5036 83.0226C50.4228 83.9682 50.3087 84.8887 50.1452 85.8298C49.9858 86.748 49.7937 87.6201 49.2149 88.3676C48.6191 89.1371 47.8305 89.3502 46.9657 89.6905C45.2341 90.3717 43.7491 89.5217 42.5872 88.3181C41.7354 87.4356 40.9359 86.2752 40.2756 85.224C39.945 84.6977 39.4238 84.0198 38.8941 83.665C38.7646 83.5782 38.769 85.3947 38.7752 85.6026C38.8191 87.0772 39.0372 90.0045 37.7382 91.0252Z" fill="url(#paint0_linear_74_8062)"/>
</g>
<circle cx="2.01774" cy="2.01774" r="2.01774" transform="matrix(-0.965926 0.258819 0.258819 0.965926 36.2227 47.6068)" fill="#14063D"/>
<circle cx="2.01774" cy="2.01774" r="2.01774" transform="matrix(-0.965926 0.258819 0.258819 0.965926 49.166 44.6493)" fill="#14063D"/>
<ellipse cx="2.35714" cy="2.61905" rx="2.35714" ry="2.61905" transform="matrix(-1 0 0 1 46.166 56.4583)" fill="#14063D"/>
<defs>
<filter id="filter0_d_74_8062" x="0.150391" y="0.171265" width="96.5879" height="116.194" filterUnits="userSpaceOnUse" color-interpolation-filters="sRGB">
<feFlood flood-opacity="0" result="BackgroundImageFix"/>
<feColorMatrix in="SourceAlpha" type="matrix" values="0 0 0 0 0 0 0 0 0 0 0 0 0 0 0 0 0 0 127 0" result="hardAlpha"/>
<feOffset/>
<feGaussianBlur stdDeviation="12"/>
<feComposite in2="hardAlpha" operator="out"/>
<feColorMatrix type="matrix" values="0 0 0 0 0 0 0 0 0 0.569536 0 0 0 0 0.74939 0 0 0 1 0"/>
<feBlend mode="normal" in2="BackgroundImageFix" result="effect1_dropShadow_74_8062"/>
<feBlend mode="normal" in="SourceGraphic" in2="effect1_dropShadow_74_8062" result="shape"/>
</filter>
<linearGradient id="paint0_linear_74_8062" x1="48.3899" y1="56.1711" x2="23.3013" y2="47.2544" gradientUnits="userSpaceOnUse">
<stop stop-color="#0094D3"/>
<stop offset="1" stop-color="#00FFFF"/>
</linearGradient>
</defs>
</svg>

<svg xmlns="http://www.w3.org/2000/svg" width="97" height="117" fill="none">
  <g filter="url(#a)">
    <path fill="url(#b)" d="M37.738 91.025c-.774.608-1.727 1.113-2.726 1.288-2.75.482-4.873-2.473-5.68-5.147-5.79-19.203-10.703-52.82 8.402-61.471 20.602-9.33 31.687 26.462 34.654 45.524.992 5.677.47 15.266-9.563 8.198-.36-.203-1.164-1.093-1.523-1.135-.157-.018-.045 1.058-.039 1.163.172 5.041-1.52 12.571-9.657 2.362-.255-.288-.532-.854-.821-1.068-.115-.085-.05.282-.074.423l-.104.6c-.076.435-.066.828-.103 1.26-.081.946-.195 1.867-.359 2.808-.16.918-.351 1.79-.93 2.538-.596.77-1.385.982-2.25 1.323-1.73.68-3.216-.17-4.378-1.373-.852-.882-1.651-2.043-2.311-3.094-.331-.526-.852-1.204-1.382-1.559-.13-.087-.125 1.73-.119 1.938.044 1.474.262 4.401-1.037 5.422Z"/>
  </g>
  <circle cx="2.018" cy="2.018" r="2.018" fill="#14063D" transform="scale(-1 1) rotate(15 -198.916 -113.766)"/>
  <circle cx="2.018" cy="2.018" r="2.018" fill="#14063D" transform="scale(-1 1) rotate(15 -194.156 -164.402)"/>
  <ellipse cx="2.357" cy="2.619" fill="#14063D" rx="2.357" ry="2.619" transform="matrix(-1 0 0 1 46.166 56.458)"/>
  <defs>
    <linearGradient id="b" x1="48.39" x2="23.301" y1="56.171" y2="47.254" gradientUnits="userSpaceOnUse">
      <stop stop-color="#0094D3"/>
      <stop offset="1" stop-color="#0FF"/>
    </linearGradient>
    <filter id="a" width="96.588" height="116.194" x=".15" y=".171" color-interpolation-filters="sRGB" filterUnits="userSpaceOnUse">
      <feFlood flood-opacity="0" result="BackgroundImageFix"/>
      <feColorMatrix in="SourceAlpha" result="hardAlpha" values="0 0 0 0 0 0 0 0 0 0 0 0 0 0 0 0 0 0 127 0"/>
      <feOffset/>
      <feGaussianBlur stdDeviation="12"/>
      <feComposite in2="hardAlpha" operator="out"/>
      <feColorMatrix values="0 0 0 0 0 0 0 0 0 0.569536 0 0 0 0 0.74939 0 0 0 1 0"/>
      <feBlend in2="BackgroundImageFix" result="effect1_dropShadow_74_8062"/>
      <feBlend in="SourceGraphic" in2="effect1_dropShadow_74_8062" result="shape"/>
    </filter>
  </defs>
</svg>
